X: 146
T: Missa Benedicta es Kyrie II
C: Giovanni Perluigi da Palestrina
L: 1/4
M: 4/2
N: Derived from Kyrie_II_03.krn
V: 1 clef=treble
V: 2 clef=treble
V: 3 clef=treble
V: 4 clef=treble-8
V: 5 clef=bass
V: 6 clef=bass
K: C
[V:1] z8 | 
[V:2] D2>E2^FGAF | 
[V:3] z8 | 
[V:4] A8 | 
[V:5] z8 | 
[V:6] D,8 | 
[V:1] z8 | 
[V:2] G2G,A,B,CDB, | 
[V:3] D8 | 
[V:4] B4G4 | 
[V:5] z8 | 
[V:6] G,,4G,,4 | 
[V:1] z8 | 
[V:2] C2G4F2- | 
[V:3] E4C4- | 
[V:4] E2>F2G2A2- | 
[V:5] z8 | 
[V:6] C,2>D,2E,2F,2- | 
[V:1] z8 | 
[V:2] F2E2D4 | 
[V:3] C4A,3B, | 
[V:4] AGG4F2 | 
[V:5] z8 | 
[V:6] F,E,C,2D,4 | 
[V:1] z8 | 
[V:2] z2G2F2E2 | 
[V:3] C2D4^C2 | 
[V:4] G4A4 | 
[V:5] z8 | 
[V:6] C,2B,,2A,,4 | 
[V:1] A8 | 
[V:2] F2>E2DCD2- | 
[V:3] D4z2D2 | 
[V:4] F2D2A2D2 | 
[V:5] D,8 | 
[V:6] D,2>E,2F,G,A,F, | 
[V:1] B4G4 | 
[V:2] DCB,4G,2 | 
[V:3] B,2G,A,B,CDB, | 
[V:4] d2>c2B4 | 
[V:5] G,,4G,,4 | 
[V:6] G,8 | 
[V:1] E2>F2G2A2- | 
[V:2] G6F2- | 
[V:3] CDE4D2 | 
[V:4] G4z4 | 
[V:5] C,2>D,2E,2F,2- | 
[V:6] z8 | 
[V:1] AGG4^F2 | 
[V:2] F2E2D4 | 
[V:3] C2>B,2A,4 | 
[V:4] z4z2A2 | 
[V:5] F,E,C,2D,4 | 
[V:6] z8 | 
[V:1] G8- | 
[V:2] D4B,2E2- | 
[V:3] G,8- | 
[V:4] B2>G2G2c2- | 
[V:5] G,,4z4 | 
[V:6] z2D,2E,3C, | 
[V:1] G4z4 | 
[V:2] E2D4C2 | 
[V:3] G,4z4 | 
[V:4] c2B2A2G2- | 
[V:5] z8 | 
[V:6] C,2G,2F,2E,2 | 
[V:1] z8 | 
[V:2] B,2A,2>G,2G,2- | 
[V:3] D4E3C | 
[V:4] G2F2E4- | 
[V:5] z8 | 
[V:6] D,4C,4 | 
[V:1] A4B3G | 
[V:2] G,2^F,2G,4- | 
[V:3] C4z2G2- | 
[V:4] E2DCD2d2 | 
[V:5] z4z2D,2 | 
[V:6] A,,4G,,4 | 
[V:1] G2c4B2 | 
[V:2] G,8 | 
[V:3] GFE4D2- | 
[V:4] B2c2G2B2 | 
[V:5] E,2>C,2C,2G,2 | 
[V:6] z8 | 
[V:1] A2G4^F2 | 
[V:2] z4z2D2 | 
[V:3] DCC2B,2A,2- | 
[V:4] c4d4 | 
[V:5] F,2>E,2D,4 | 
[V:6] z8 | 
[V:1] G4c4 | 
[V:2] E2DCC4 | 
[V:3] A,G,G,4^F,2 | 
[V:4] G4z2A2 | 
[V:5] C,4A,,4 | 
[V:6] z8 | 
[V:1] B6AG | 
[V:2] z2G4F2- | 
[V:3] G,4z4 | 
[V:4] B2>G2G2d2- | 
[V:5] G,,4z4 | 
[V:6] z4z2D,2 | 
[V:1] A2G4d2 | 
[V:2] F2E2D4 | 
[V:3] z8 | 
[V:4] dcc4B2 | 
[V:5] z4G,,4 | 
[V:6] F,2C,2G,3F, | 
[V:1] c2B2A2A2 | 
[V:2] E2D2z2D2 | 
[V:3] z2D2D2D2 | 
[V:4] G4A4 | 
[V:5] C,2G,,2D,4 | 
[V:6] E,C,G,4^F,2 | 
[V:1] B2>G2G2d2 | 
[V:2] D2D2B,4 | 
[V:3] B,2>C2D4 | 
[V:4] G4z2G2 | 
[V:5] G,,2G,2G,2G,2 | 
[V:6] G,4G,,4 | 
[V:1] c2B2A4 | 
[V:2] G,2zDD2D2 | 
[V:3] E2D2z2D2 | 
[V:4] G2G2A4 | 
[V:5] E,C,G,4^F,2 | 
[V:6] C,2G,,2D,4 | 
[V:1] B8 | 
[V:2] B,2>C2DG,G2- | 
[V:3] D2D2B,3C | 
[V:4] G4z4 | 
[V:5] G,4z4 | 
[V:6] G,,8 | 
[V:1] z8 | 
[V:2] G2^FEF4 | 
[V:3] D4D4- | 
[V:4] A8 | 
[V:5] D,8 | 
[V:6] z8 | 
[V:1] B8 | 
[V:2] G4G,4- | 
[V:3] D4G4- | 
[V:4] B2>c2d2B2 | 
[V:5] G,8 | 
[V:6] G,,8 | 
[V:1] c8 | 
[V:2] G,4C4 | 
[V:3] G2E2A4 | 
[V:4] edcBAGF2 | 
[V:5] E,4F,4- | 
[V:6] C,4F,,4 | 
[V:1] c8 | 
[V:2] C2>B,2G,4 | 
[V:3] G4C4- | 
[V:4] G4z2c2- | 
[V:5] F,2E,D,E,4 | 
[V:6] C,8 | 
[V:1] A8 | 
[V:2] A,4D4 | 
[V:3] C4F4 | 
[V:4] c2A4d2- | 
[V:5] F,4D,4 | 
[V:6] F,,4z4 | 
[V:1] B8 | 
[V:2] B,2>C2D4 | 
[V:3] D4G4 | 
[V:4] dcBAB4 | 
[V:5] G,8 | 
[V:6] G,,8 | 
[V:1] G4G4- | 
[V:2] E2>D2C2G,2 | 
[V:3] G2>F2E2C2 | 
[V:4] c4G4 | 
[V:5] E,4C,4 | 
[V:6] C,2>D,2E,4 | 
[V:1] G2^FEF4 | 
[V:2] z2D2D2D2 | 
[V:3] D4z4 | 
[V:4] A8 | 
[V:5] z4D,4 | 
[V:6] D,8 | 
[V:1] G8- | 
[V:2] G,2G2>F2E2- | 
[V:3] E4E2C2 | 
[V:4] c4G4 | 
[V:5] E,2C,2E,3F, | 
[V:6] C,8- | 
[V:1] G4-G4- | 
[V:2] EDCB,C4 | 
[V:3] E8 | 
[V:4] E2>F2G4 | 
[V:5] G,4C,4 | 
[V:6] C,8 | 
[V:1] G8 |]  
[V:2] B,8 |]  
[V:3] D8 |]  
[V:4] G8 |]  
[V:5] D,8 |]  
[V:6] G,,8 |]  

